;FLAVOR:Marlin
;TIME:15776
;Filament used: 12.6559m
;Layer height: 0.2
;MINX:26.5
;MINY:56.5
;MINZ:0.2
;MAXX:208.5
;MAXY:178.5
;MAXZ:3
;Generated with Cura_SteamEngine 4.10.0
M140 S50
M105
M190 S50
M104 S200
M105
M109 S200
M82 ;absolute extrusion mode
; Ender 3 Custom Start G-code
G92 E0 ; Reset Extruder
G28 ; Home all axes
G1 Z2.0 F3000 ; Move Z Axis up little to prevent scratching of Heat Bed
G1 X0.1 Y20 Z0.3 F5000.0 ; Move to start position
G1 X0.1 Y200.0 Z0.3 F1500.0 E15 ; Draw the first line
G1 X0.4 Y200.0 Z0.3 F5000.0 ; Move to side a little
G1 X0.4 Y20 Z0.3 F1500.0 E30 ; Draw the second line
G92 E0 ; Reset Extruder
G1 Z2.0 F3000 ; Move Z Axis up little to prevent scratching of Heat Bed
G1 X5 Y20 Z0.3 F5000.0 ; Move over to prevent blob squish
G92 E0
G92 E0
G1 F2700 E-5
;LAYER_COUNT:15
;LAYER:0
M107
G0 F6000 X31.912 Y58.039 Z0.2
;TYPE:SKIRT
G1 F2700 E0
G1 F1200 X32.739 Y57.597 E0.03119
G1 X33.601 Y57.227 E0.06239
G1 X34.491 Y56.931 E0.09358
G1 X35.403 Y56.713 E0.12477
G1 X36.33 Y56.572 E0.15596
G1 X37.201 Y56.513 E0.18499
G1 X37.522 Y56.504 E0.19567
G1 X37.83 Y56.5 E0.20592
G1 X196.793 Y56.5 E5.49305
G1 X197.649 Y56.511 E5.52152
G1 X198.585 Y56.565 E5.55271
G1 X199.513 Y56.697 E5.58388
G1 X200.427 Y56.909 E5.61509
G1 X201.319 Y57.198 E5.64628
G1 X202.184 Y57.561 E5.67748
G1 X203.014 Y57.997 E5.70866
G1 X203.805 Y58.502 E5.73987
G1 X204.549 Y59.073 E5.77107
G1 X205.242 Y59.705 E5.80226
G1 X205.879 Y60.393 E5.83345
G1 X206.454 Y61.134 E5.86464
G1 X206.965 Y61.92 E5.89582
G1 X207.407 Y62.748 E5.92704
G1 X207.776 Y63.61 E5.95823
G1 X208.071 Y64.5 E5.98941
G1 X208.289 Y65.412 E6.0206
G1 X208.429 Y66.34 E6.05182
G1 X208.487 Y67.201 E6.08052
G1 X208.496 Y67.521 E6.09116
G1 X208.5 Y67.83 E6.10144
G1 X208.499 Y166.9 E9.39652
G1 X208.49 Y167.627 E9.42071
G1 X208.439 Y168.564 E9.45192
G1 X208.307 Y169.492 E9.48309
G1 X208.098 Y170.406 E9.51428
G1 X207.811 Y171.299 E9.54548
G1 X207.449 Y172.165 E9.57669
G1 X207.015 Y172.996 E9.60788
G1 X206.511 Y173.787 E9.63907
G1 X205.942 Y174.532 E9.67025
G1 X205.311 Y175.227 E9.70147
G1 X204.624 Y175.865 E9.73266
G1 X203.885 Y176.442 E9.76384
G1 X203.099 Y176.954 E9.79504
G1 X202.273 Y177.397 E9.82621
G1 X201.411 Y177.769 E9.85744
G1 X200.522 Y178.065 E9.8886
G1 X199.61 Y178.285 E9.91981
G1 X198.683 Y178.426 E9.95099
G1 X197.799 Y178.487 E9.98047
G1 X197.478 Y178.496 E9.99115
G1 X197.17 Y178.5 E10.00139
G1 X38.065 Y178.499 E15.29325
G1 X37.367 Y178.49 E15.31646
G1 X36.431 Y178.438 E15.34764
G1 X35.502 Y178.306 E15.37885
G1 X34.588 Y178.096 E15.41004
G1 X33.695 Y177.809 E15.44124
G1 X32.83 Y177.446 E15.47244
G1 X31.999 Y177.012 E15.50362
G1 X31.208 Y176.508 E15.53482
G1 X30.463 Y175.938 E15.56602
G1 X29.769 Y175.307 E15.59721
G1 X29.132 Y174.62 E15.62838
G1 X28.555 Y173.88 E15.65959
G1 X28.043 Y173.094 E15.69079
G1 X27.6 Y172.267 E15.72199
G1 X27.229 Y171.406 E15.75317
G1 X26.933 Y170.516 E15.78437
G1 X26.714 Y169.604 E15.81556
G1 X26.573 Y168.677 E15.84675
G1 X26.513 Y167.788 E15.87639
G1 X26.504 Y167.455 E15.88747
G1 X26.5 Y167.158 E15.89734
G1 X26.501 Y68.025 E19.19452
G1 X26.51 Y67.36 E19.21664
G1 X26.563 Y66.424 E19.24782
G1 X26.695 Y65.495 E19.27903
G1 X26.906 Y64.581 E19.31023
G1 X27.194 Y63.689 E19.34141
G1 X27.557 Y62.824 E19.37261
G1 X27.992 Y61.993 E19.4038
G1 X28.496 Y61.203 E19.43497
G1 X29.066 Y60.458 E19.46617
G1 X29.698 Y59.764 E19.49739
G1 X30.386 Y59.127 E19.52858
G1 X31.126 Y58.551 E19.55977
G1 X31.912 Y58.039 E19.59097
G0 F6000 X32.291 Y58.282
G1 F1200 X33.111 Y57.864 E19.62158
G1 X33.965 Y57.519 E19.65221
G1 X34.845 Y57.249 E19.68283
G1 X35.745 Y57.057 E19.71344
G1 X36.659 Y56.943 E19.74407
G1 X37.212 Y56.913 E19.76249
G1 X37.533 Y56.904 E19.77317
G1 X37.83 Y56.9 E19.78305
G1 X196.793 Y56.9 E25.07018
G1 X197.643 Y56.911 E25.09845
G1 X198.562 Y56.964 E25.12907
G1 X199.473 Y57.097 E25.15969
G1 X200.369 Y57.308 E25.19031
G1 X201.243 Y57.596 E25.22092
G1 X202.09 Y57.959 E25.25157
G1 X202.901 Y58.394 E25.28217
G1 X203.671 Y58.898 E25.31278
G1 X204.395 Y59.467 E25.34341
G1 X205.067 Y60.097 E25.37405
G1 X205.682 Y60.782 E25.40467
G1 X206.235 Y61.518 E25.43529
G1 X206.722 Y62.299 E25.4659
G1 X207.139 Y63.12 E25.49652
G1 X207.484 Y63.974 E25.52716
G1 X207.753 Y64.854 E25.55776
G1 X207.945 Y65.755 E25.58841
G1 X208.058 Y66.668 E25.619
G1 X208.087 Y67.212 E25.63712
G1 X208.096 Y67.532 E25.64777
G1 X208.1 Y67.83 E25.65768
G1 X208.099 Y166.895 E28.9526
G1 X208.09 Y167.622 E28.97678
G1 X208.039 Y168.541 E29.00739
G1 X207.908 Y169.453 E29.03804
G1 X207.698 Y170.349 E29.06865
G1 X207.412 Y171.224 E29.09926
G1 X207.051 Y172.071 E29.12989
G1 X206.617 Y172.883 E29.16051
G1 X206.115 Y173.655 E29.19114
G1 X205.547 Y174.38 E29.22177
G1 X204.919 Y175.053 E29.25239
G1 X204.235 Y175.669 E29.283
G1 X203.5 Y176.223 E29.31361
G1 X202.72 Y176.712 E29.34423
G1 X201.9 Y177.131 E29.37486
G1 X201.047 Y177.477 E29.40548
G1 X200.167 Y177.748 E29.4361
G1 X199.267 Y177.941 E29.46672
G1 X198.353 Y178.056 E29.49736
G1 X197.788 Y178.087 E29.51618
G1 X197.467 Y178.096 E29.52686
G1 X197.17 Y178.1 E29.53674
G1 X38.07 Y178.099 E34.82843
G1 X37.372 Y178.09 E34.85164
G1 X36.453 Y178.038 E34.88226
G1 X35.542 Y177.907 E34.91287
G1 X34.646 Y177.697 E34.94348
G1 X33.771 Y177.41 E34.97411
G1 X32.924 Y177.048 E35.00474
G1 X32.112 Y176.614 E35.03537
G1 X31.341 Y176.112 E35.06597
G1 X30.616 Y175.544 E35.0966
G1 X29.943 Y174.915 E35.12724
G1 X29.328 Y174.231 E35.15783
G1 X28.774 Y173.496 E35.18844
G1 X28.286 Y172.715 E35.21907
G1 X27.867 Y171.895 E35.2497
G1 X27.521 Y171.042 E35.28032
G1 X27.251 Y170.162 E35.31093
G1 X27.058 Y169.261 E35.34158
G1 X26.944 Y168.348 E35.37218
G1 X26.913 Y167.777 E35.3912
G1 X26.904 Y167.444 E35.40228
G1 X26.9 Y167.158 E35.41179
G1 X26.901 Y68.031 E38.70877
G1 X26.91 Y67.366 E38.73089
G1 X26.962 Y66.446 E38.76154
G1 X27.094 Y65.535 E38.79216
G1 X27.305 Y64.639 E38.82277
G1 X27.592 Y63.764 E38.8534
G1 X27.955 Y62.918 E38.88402
G1 X28.389 Y62.106 E38.91464
G1 X28.892 Y61.335 E38.94526
G1 X29.461 Y60.611 E38.97589
G1 X30.089 Y59.939 E39.00648
G1 X30.774 Y59.323 E39.03712
G1 X31.51 Y58.77 E39.06774
G1 X32.291 Y58.282 E39.09837
G0 F6000 X32.669 Y58.531
G1 F1200 X33.482 Y58.138 E39.1284
G1 X34.327 Y57.818 E39.15846
G1 X35.196 Y57.575 E39.18847
G1 X36.084 Y57.409 E39.21851
G1 X37.223 Y57.313 E39.25653
G1 X37.544 Y57.304 E39.26721
G1 X37.83 Y57.3 E39.27673
G1 X196.793 Y57.3 E44.56386
G1 X197.637 Y57.311 E44.59193
G1 X198.539 Y57.364 E44.62198
G1 X199.432 Y57.496 E44.65201
G1 X200.31 Y57.707 E44.68204
G1 X201.166 Y57.995 E44.71208
G1 X201.993 Y58.357 E44.74211
G1 X202.785 Y58.792 E44.77216
G1 X203.536 Y59.294 E44.8022
G1 X204.239 Y59.861 E44.83224
G1 X204.889 Y60.488 E44.86228
G1 X205.481 Y61.17 E44.89232
G1 X206.011 Y61.901 E44.92235
G1 X206.473 Y62.677 E44.95239
G1 X206.866 Y63.49 E44.98242
G1 X207.184 Y64.335 E45.01245
G1 X207.427 Y65.205 E45.04249
G1 X207.592 Y66.093 E45.07254
G1 X207.687 Y67.223 E45.11025
G1 X207.696 Y67.543 E45.1209
G1 X207.7 Y67.83 E45.13045
G1 X207.699 Y166.89 E48.42519
G1 X207.69 Y167.617 E48.44938
G1 X207.639 Y168.519 E48.47943
G1 X207.508 Y169.413 E48.50948
G1 X207.299 Y170.291 E48.5395
G1 X207.013 Y171.148 E48.56955
G1 X206.652 Y171.976 E48.59959
G1 X206.22 Y172.768 E48.62959
G1 X205.719 Y173.52 E48.65965
G1 X205.153 Y174.224 E48.68969
G1 X204.528 Y174.875 E48.71971
G1 X203.847 Y175.469 E48.74976
G1 X203.116 Y176 E48.77981
G1 X202.342 Y176.464 E48.80983
G1 X201.529 Y176.858 E48.83988
G1 X200.685 Y177.178 E48.8699
G1 X199.815 Y177.423 E48.89996
G1 X198.928 Y177.589 E48.92998
G1 X197.777 Y177.687 E48.9684
G1 X197.456 Y177.696 E48.97908
G1 X197.17 Y177.7 E48.98859
G1 X38.075 Y177.699 E54.28011
G1 X37.377 Y177.69 E54.30333
G1 X36.476 Y177.639 E54.33334
G1 X35.582 Y177.507 E54.3634
G1 X34.704 Y177.298 E54.39342
G1 X33.847 Y177.011 E54.42348
G1 X33.02 Y176.65 E54.45349
G1 X32.227 Y176.217 E54.48354
G1 X31.476 Y175.716 E54.51357
G1 X30.772 Y175.15 E54.54361
G1 X30.121 Y174.524 E54.57365
G1 X29.528 Y173.843 E54.60369
G1 X28.998 Y173.112 E54.63372
G1 X28.534 Y172.337 E54.66376
G1 X28.14 Y171.524 E54.69381
G1 X27.82 Y170.68 E54.72383
G1 X27.576 Y169.81 E54.75388
G1 X27.41 Y168.922 E54.78393
G1 X27.313 Y167.767 E54.82248
G1 X27.304 Y167.434 E54.83356
G1 X27.3 Y167.158 E54.84274
G1 X27.301 Y68.036 E58.13955
G1 X27.31 Y67.371 E58.16167
G1 X27.362 Y66.469 E58.19172
G1 X27.494 Y65.576 E58.22175
G1 X27.704 Y64.698 E58.25177
G1 X27.991 Y63.841 E58.28183
G1 X28.353 Y63.014 E58.31186
G1 X28.786 Y62.222 E58.34188
G1 X29.288 Y61.471 E58.37193
G1 X29.855 Y60.767 E58.40199
G1 X30.481 Y60.117 E58.43201
G1 X31.162 Y59.524 E58.46204
G1 X31.894 Y58.994 E58.4921
G1 X32.669 Y58.531 E58.52212
G1 F2700 E53.52212
;MESH:capot boitier meteo.stl
G0 F6000 X38.31 Y66.835
G0 X38.31 Y68.31
G0 X38.282 Y166.718
G0 X196.9 Y166.9
;TYPE:WALL-INNER
G1 F2700 E58.52212
G1 F1200 X38.1 Y166.9 E63.80383
G1 X38.1 Y68.1 E67.08993
G1 X196.9 Y68.1 E72.37164
G1 X196.9 Y166.9 E75.65775
G0 F6000 X197.3 Y167.3
;TYPE:WALL-OUTER
G1 F1200 X37.7 Y167.3 E80.96606
G1 X37.7 Y67.7 E84.27877
G1 X197.3 Y67.7 E89.58709
G1 X197.3 Y167.3 E92.8998
G0 F6000 X197.03 Y167.03
G0 X196.79 Y166.51
G0 X196.51 Y166.51
;TYPE:SKIN
G1 F1200 X38.49 Y166.51 E98.15557
G1 X38.49 Y68.49 E101.41572
G1 X196.51 Y68.49 E106.67149
G1 X196.51 Y166.51 E109.93165
G1 F2700 E104.93165
G0 F6000 X196.79 Y166.51
G0 X196.79 Y69.07
G0 X196.349 Y69.07
G1 F2700 E109.93165
G1 F1200 X195.929 Y68.65 E109.9514
G0 F6000 X195.363 Y68.65
G1 F1200 X196.349 Y69.635 E109.99776
G0 F6000 X196.349 Y70.201
G1 F1200 X194.798 Y68.65 E110.07071
G0 F6000 X194.232 Y68.65
G1 F1200 X196.349 Y70.767 E110.17029
G0 F6000 X196.349 Y71.332
G1 F1200 X193.666 Y68.65 E110.29647
G0 F6000 X193.1 Y68.65
G1 F1200 X196.349 Y71.898 E110.44927
G0 F6000 X196.349 Y72.464
G1 F1200 X192.535 Y68.65 E110.62867
G0 F6000 X191.969 Y68.65
G1 F1200 X196.349 Y73.029 E110.83466
G0 F6000 X196.349 Y73.595
G1 F1200 X191.403 Y68.65 E111.06729
G0 F6000 X190.838 Y68.65
G1 F1200 X196.349 Y74.161 E111.32651
G0 F6000 X196.349 Y74.727
G1 F1200 X190.272 Y68.65 E111.61235
G0 F6000 X189.706 Y68.65
G1 F1200 X196.349 Y75.292 E111.92479
G0 F6000 X196.349 Y75.858
G1 F1200 X189.141 Y68.65 E112.26383
G0 F6000 X188.575 Y68.65
G1 F1200 X196.349 Y76.424 E112.6295
G0 F6000 X196.349 Y76.989
G1 F1200 X188.009 Y68.65 E113.02176
G0 F6000 X187.444 Y68.65
G1 F1200 X196.349 Y77.555 E113.44063
G0 F6000 X196.349 Y78.121
G1 F1200 X186.878 Y68.65 E113.88611
G0 F6000 X186.312 Y68.65
G1 F1200 X196.349 Y78.686 E114.3582
G0 F6000 X196.349 Y79.252
G1 F1200 X185.747 Y68.65 E114.85689
G0 F6000 X185.181 Y68.65
G1 F1200 X196.349 Y79.818 E115.3822
G0 F6000 X196.349 Y80.383
G1 F1200 X184.615 Y68.65 E115.9341
G0 F6000 X184.049 Y68.65
G1 F1200 X196.349 Y80.949 E116.51263
G0 F6000 X196.349 Y81.515
G1 F1200 X183.484 Y68.65 E117.11776
G0 F6000 X182.918 Y68.65
G1 F1200 X196.349 Y82.08 E117.74949
G0 F6000 X196.349 Y82.646
G1 F1200 X182.352 Y68.65 E118.40785
G0 F6000 X181.787 Y68.65
G1 F1200 X196.349 Y83.212 E119.0928
G0 F6000 X196.349 Y83.778
G1 F1200 X181.221 Y68.65 E119.80437
G0 F6000 X180.655 Y68.65
G1 F1200 X196.349 Y84.343 E120.54255
G0 F6000 X196.349 Y84.909
G1 F1200 X180.09 Y68.65 E121.30732
G0 F6000 X179.524 Y68.65
G1 F1200 X196.349 Y85.475 E122.09872
G0 F6000 X196.349 Y86.04
G1 F1200 X178.958 Y68.65 E122.91671
G0 F6000 X178.393 Y68.65
G1 F1200 X196.349 Y86.606 E123.76131
G0 F6000 X196.349 Y87.172
G1 F1200 X177.827 Y68.65 E124.63253
G0 F6000 X177.261 Y68.65
G1 F1200 X196.349 Y87.737 E125.53034
G0 F6000 X196.349 Y88.303
G1 F1200 X176.696 Y68.65 E126.45476
G0 F6000 X176.13 Y68.65
G1 F1200 X196.349 Y88.869 E127.4058
G0 F6000 X196.349 Y89.434
G1 F1200 X175.564 Y68.65 E128.38344
G0 F6000 X174.999 Y68.65
G1 F1200 X196.349 Y90 E129.38768
G0 F6000 X196.349 Y90.566
G1 F1200 X174.433 Y68.65 E130.41854
G0 F6000 X173.867 Y68.65
G1 F1200 X196.349 Y91.131 E131.476
G0 F6000 X196.349 Y91.697
G1 F1200 X173.301 Y68.65 E132.56008
G0 F6000 X172.736 Y68.65
G1 F1200 X196.349 Y92.263 E133.67077
G0 F6000 X196.349 Y92.828
G1 F1200 X172.17 Y68.65 E134.80805
G0 F6000 X171.604 Y68.65
G1 F1200 X196.349 Y93.394 E135.97195
G0 F6000 X196.349 Y93.96
G1 F1200 X171.039 Y68.65 E137.16246
G0 F6000 X170.473 Y68.65
G1 F1200 X196.349 Y94.526 E138.37959
G0 F6000 X196.349 Y95.091
G1 F1200 X169.907 Y68.65 E139.62331
G0 F6000 X169.342 Y68.65
G1 F1200 X196.349 Y95.657 E140.89364
G0 F6000 X196.349 Y96.223
G1 F1200 X168.776 Y68.65 E142.19059
G0 F6000 X168.21 Y68.65
G1 F1200 X196.349 Y96.788 E143.51414
G0 F6000 X196.349 Y97.354
G1 F1200 X167.645 Y68.65 E144.86429
G0 F6000 X167.079 Y68.65
G1 F1200 X196.349 Y97.92 E146.24106
G0 F6000 X196.349 Y98.485
G1 F1200 X166.513 Y68.65 E147.64443
G0 F6000 X165.948 Y68.65
G1 F1200 X196.349 Y99.051 E149.0744
G0 F6000 X196.349 Y99.617
G1 F1200 X165.382 Y68.65 E150.53099
G0 F6000 X164.816 Y68.65
G1 F1200 X196.349 Y100.182 E152.01418
G0 F6000 X196.349 Y100.748
G1 F1200 X164.251 Y68.65 E153.52397
G0 F6000 X163.685 Y68.65
G1 F1200 X196.349 Y101.314 E155.06039
G0 F6000 X196.349 Y101.879
G1 F1200 X163.119 Y68.65 E156.6234
G0 F6000 X162.553 Y68.65
G1 F1200 X196.349 Y102.445 E158.21304
G0 F6000 X196.349 Y103.011
G1 F1200 X161.988 Y68.65 E159.82928
G0 F6000 X161.422 Y68.65
G1 F1200 X196.349 Y103.577 E161.47213
G0 F6000 X196.349 Y104.142
G1 F1200 X160.856 Y68.65 E163.14159
G0 F6000 X160.291 Y68.65
G1 F1200 X196.349 Y104.708 E164.83765
G0 F6000 X196.349 Y105.274
G1 F1200 X159.725 Y68.65 E166.56033
G0 F6000 X159.159 Y68.65
G1 F1200 X196.349 Y105.839 E168.30961
G0 F6000 X196.349 Y106.405
G1 F1200 X158.594 Y68.65 E170.08549
G0 F6000 X158.028 Y68.65
G1 F1200 X196.349 Y106.971 E171.88799
G0 F6000 X196.349 Y107.536
G1 F1200 X157.462 Y68.65 E173.7171
G0 F6000 X156.897 Y68.65
G1 F1200 X196.349 Y108.102 E175.5728
G0 F6000 X196.349 Y108.668
G1 F1200 X156.331 Y68.65 E177.45512
G0 F6000 X155.765 Y68.65
G1 F1200 X196.349 Y109.233 E179.36404
G0 F6000 X196.349 Y109.799
G1 F1200 X155.2 Y68.65 E181.29957
G0 F6000 X154.634 Y68.65
G1 F1200 X196.349 Y110.365 E183.26171
G0 F6000 X196.349 Y110.93
G1 F1200 X154.068 Y68.65 E185.25046
G0 F6000 X153.502 Y68.65
G1 F1200 X196.349 Y111.496 E187.26583
G0 F6000 X196.349 Y112.062
G1 F1200 X152.937 Y68.65 E189.30779
G0 F6000 X152.371 Y68.65
G1 F1200 X196.349 Y112.627 E191.37636
G0 F6000 X196.349 Y113.193
G1 F1200 X151.805 Y68.65 E193.47155
G0 F6000 X151.24 Y68.65
G1 F1200 X196.349 Y113.759 E195.59334
G0 F6000 X196.349 Y114.325
G1 F1200 X150.674 Y68.65 E197.74175
G0 F6000 X150.108 Y68.65
G1 F1200 X196.349 Y114.89 E199.91676
G0 F6000 X196.349 Y115.456
G1 F1200 X149.543 Y68.65 E202.11837
G0 F6000 X148.977 Y68.65
G1 F1200 X196.349 Y116.022 E204.34661
G0 F6000 X196.349 Y116.587
G1 F1200 X148.411 Y68.65 E206.60144
G0 F6000 X147.846 Y68.65
G1 F1200 X196.349 Y117.153 E208.88287
G0 F6000 X196.349 Y117.719
G1 F1200 X147.28 Y68.65 E211.19093
G0 F6000 X146.714 Y68.65
G1 F1200 X196.349 Y118.284 E213.52558
G0 F6000 X196.349 Y118.85
G1 F1200 X146.149 Y68.65 E215.88684
G0 F6000 X145.583 Y68.65
G1 F1200 X196.349 Y119.416 E218.27471
G0 F6000 X196.349 Y119.981
G1 F1200 X145.017 Y68.65 E220.68919
G0 F6000 X144.452 Y68.65
G1 F1200 X196.349 Y120.547 E223.13026
G0 F6000 X196.349 Y121.113
G1 F1200 X143.886 Y68.65 E225.59796
G0 F6000 X143.32 Y68.65
G1 F1200 X196.349 Y121.678 E228.09226
G0 F6000 X196.349 Y122.244
G1 F1200 X142.754 Y68.65 E230.61318
G0 F6000 X142.189 Y68.65
G1 F1200 X196.349 Y122.81 E233.1607
G0 F6000 X196.349 Y123.375
G1 F1200 X141.623 Y68.65 E235.73482
G0 F6000 X141.057 Y68.65
G1 F1200 X196.349 Y123.941 E238.33556
G0 F6000 X196.349 Y124.507
G1 F1200 X140.492 Y68.65 E240.96291
G0 F6000 X139.926 Y68.65
